img/advantages__icon-02.svg

<svg width="56" height="56" viewBox="0 0 56 56" fill="none" xmlns="http://www.w3.org/2000/svg">
<g clip-path="url(#clip0)">
<path d="M55.2008 54.9949C55.1574 55.5919 54.6384 56.0405 54.0414 55.9971C53.7393 55.9752 53.4603 55.8278 53.2719 55.5909C53.2719 55.5909 49.9559 51.5164 45.1229 51.7873C41.3302 51.9932 39.7047 47.2252 39.1195 44.6895C38.9802 44.6614 38.8475 44.6062 38.7294 44.5269L32.6935 40.3332C32.2008 39.9935 32.0767 39.3188 32.4164 38.826C32.4537 38.7721 32.4956 38.7216 32.5418 38.6753L32.7694 38.4477C27.5571 33.9723 2.0265 11.4434 0.726133 1.22463C0.648246 0.631199 1.06626 0.0870781 1.65969 0.00932693C1.7094 0.00282288 1.75966 -0.000293732 1.80977 0.000110626H1.93981C12.1585 1.30048 34.6874 26.8419 39.1846 32.0325L39.4121 31.805C39.6167 31.6022 39.8935 31.4891 40.1815 31.4907H40.279C40.6124 31.5059 40.9203 31.6737 41.1134 31.9459L45.3071 37.9817C45.4554 38.1971 45.5209 38.4588 45.4913 38.7186C47.7031 38.9325 49.7864 39.8562 51.4297 41.3519C54.3555 44.126 55.6342 48.7206 55.2008 54.9949ZM3.26185 2.54667C6.70783 12.6679 29.8002 33.0295 34.2973 36.9198L37.6458 33.5713C33.7447 29.085 13.3831 6.00349 3.26185 2.54667ZM40.0298 34.2648L34.98 39.3146L39.2062 42.2404L42.9556 38.4477L40.0298 34.2648ZM49.9234 42.9773C48.2078 41.4566 45.9596 40.6773 43.6708 40.81L41.0484 43.4325C41.4602 45.5456 42.7281 49.7826 44.982 49.6309C47.9442 49.5377 50.8357 50.5453 53.0985 52.4592C53.0985 48.1246 52.0149 44.9279 49.9234 42.9773Z" fill="url(#paint0_linear)"/>
</g>
<defs>
<linearGradient id="paint0_linear" x1="0.716797" y1="27.699" x2="57.4424" y2="28.4413" gradientUnits="userSpaceOnUse">
<stop stop-color="#FCAF45"/>
<stop offset="0.197917" stop-color="#F77737"/>
<stop offset="0.395833" stop-color="#FD1D1D"/>
<stop offset="0.59375" stop-color="#C13584"/>
<stop offset="0.796875" stop-color="#833AB4"/>
<stop offset="1" stop-color="#405DE6"/>
</linearGradient>
<clipPath id="clip0">
<rect width="56" height="56" fill="white" transform="matrix(1 0 0 -1 0 56)"/>
</clipPath>
</defs>
</svg>

<svg width="56" height="56" viewBox="0 0 56 56" fill="none" xmlns="http://www.w3.org/2000/svg"><g clip-path="url(#clip0)"><path d="M55.2 54.995a1.084 1.084 0 01-1.928.596s-3.316-4.075-8.15-3.804c-3.792.206-5.417-4.562-6.002-7.097a1.085 1.085 0 01-.39-.163l-6.036-4.194a1.084 1.084 0 01-.152-1.658l.227-.227C27.557 33.972 2.027 11.443.726 1.225A1.083 1.083 0 011.81 0h.13c10.219 1.3 32.747 26.842 37.245 32.032l.227-.227c.205-.203.482-.316.77-.314h.097c.333.015.641.183.834.455l4.194 6.036c.148.215.214.477.184.737a10.294 10.294 0 015.939 2.633c2.925 2.774 4.204 7.369 3.77 13.643zM3.263 2.547C6.708 12.667 29.8 33.029 34.297 36.92l3.349-3.349C33.745 29.085 13.383 6.003 3.262 2.547zM40.03 34.265l-5.05 5.05 4.226 2.925 3.75-3.792-2.926-4.183zm9.893 8.712a8.67 8.67 0 00-6.252-2.167l-2.623 2.622c.412 2.114 1.68 6.35 3.934 6.199a11.985 11.985 0 018.117 2.828c0-4.334-1.084-7.531-3.176-9.482z" fill="url(#paint0_linear)"/></g><defs><linearGradient id="paint0_linear" x1=".717" y1="27.699" x2="57.442" y2="28.441" gradientUnits="userSpaceOnUse"><stop stop-color="#FCAF45"/><stop offset=".198" stop-color="#F77737"/><stop offset=".396" stop-color="#FD1D1D"/><stop offset=".594" stop-color="#C13584"/><stop offset=".797" stop-color="#833AB4"/><stop offset="1" stop-color="#405DE6"/></linearGradient><clipPath id="clip0"><path fill="#fff" transform="matrix(1 0 0 -1 0 56)" d="M0 0h56v56H0z"/></clipPath></defs></svg>
